icon/lg/aws-iam.svg

<?xml version="1.0" encoding="UTF-8"?>
<svg viewBox="0 0 256 256" version="1.1" xmlns="http://www.w3.org/2000/svg" xmlns:xlink="http://www.w3.org/1999/xlink" preserveAspectRatio="xMidYMid" height="1em" width="1em">
  <defs>
    <linearGradient x1="0%" y1="100%" x2="100%" y2="0%" id="linearGradient-1">
      <stop stop-color="#BD0816" offset="0%"/>
      <stop stop-color="#FF5252" offset="100%"/>
    </linearGradient>
  </defs>
  <g>
    <rect fill="url(#linearGradient-1)" x="0" y="0" width="256" height="256"/>
    <path d="M44.8,188.8 L211.2,188.8 L211.2,67.2 L44.8,67.2 L44.8,188.8 Z M217.6,64 L217.6,192 C217.6,193.7664 216.1696,195.2 214.4,195.2 L41.6,195.2 C39.8304,195.2 38.4,193.7664 38.4,192 L38.4,64 C38.4,62.2336 39.8304,60.8 41.6,60.8 L214.4,60.8 C216.1696,60.8 217.6,62.2336 217.6,64 L217.6,64 Z M140.8,153.6 L188.8,153.6 L188.8,147.2 L140.8,147.2 L140.8,153.6 Z M182.4,134.4 L198.4,134.4 L198.4,128 L182.4,128 L182.4,134.4 Z M140.8,134.4 L166.4,134.4 L166.4,128 L140.8,128 L140.8,134.4 Z M92.8,147.2 C92.8,145.4368 91.3664,144 89.6,144 C87.8336,144 86.4,145.4368 86.4,147.2 C86.4,148.9632 87.8336,150.4 89.6,150.4 C91.3664,150.4 92.8,148.9632 92.8,147.2 L92.8,147.2 Z M99.2,147.2 C99.2,151.3664 96.5152,154.8832 92.8,156.2112 L92.8,163.2 L86.4,163.2 L86.4,156.208 C82.6848,154.8832 80,151.3664 80,147.2 C80,141.9072 84.3072,137.6 89.6,137.6 C94.8928,137.6 99.2,141.9072 99.2,147.2 L99.2,147.2 Z M60.8,172.7776 L118.3808,172.8 L118.3872,160 L105.6,160 L105.6,153.6 L118.3872,153.6 L118.3936,144 L105.6,144 L105.6,137.6 L118.3968,137.6 L118.4,128.0224 L60.8192,128 L60.8,172.7776 Z M70.4,121.6032 L108.800001,121.6192 L108.800001,99.2 C108.8032,91.8304 99.8304,85.3664 89.6,85.36 L89.5872,85.36 C79.3728,85.36 70.4128,91.8272 70.4064,99.2 L70.4,121.6032 Z M54.4,175.9744 L54.4192,124.8 C54.4192,123.9488 54.7552,123.136 55.3568,122.5344 C55.9552,121.936 56.7712,121.6 57.6192,121.6 L64,121.6032 L64.0064,99.2 C64.0128,88.0384 75.488,78.96 89.5872,78.96 L89.6,78.96 C103.7184,78.9664 115.2032,88.048 115.2,99.2 L115.2,121.6224 L121.6,121.6256 C123.3696,121.6256 124.8,123.0592 124.8,124.8256 L124.7808,176 C124.7808,176.8512 124.4448,177.664 123.8432,178.2656 C123.2448,178.864 122.4288,179.2 121.5808,179.2 L57.6,179.1744 C55.8304,179.1744 54.4,177.7408 54.4,175.9744 L54.4,175.9744 Z M192,115.2 L198.4,115.2 L198.4,108.8 L192,108.8 L192,115.2 Z M140.8,115.2 L176,115.2 L176,108.8 L140.8,108.8 L140.8,115.2 Z" fill="#FFFFFF"/>
  </g>
</svg>

<svg width="256" height="256" xmlns="http://www.w3.org/2000/svg" preserveAspectRatio="xMidYMid"><defs><linearGradient x1="0%" y1="100%" x2="100%" y2="0%" id="a"><stop stop-color="#BD0816" offset="0%"/><stop stop-color="#FF5252" offset="100%"/></linearGradient></defs><path fill="url(#a)" d="M0 0h256v256H0z"/><path d="M44.8 188.8h166.4V67.2H44.8v121.6ZM217.6 64v128a3.2 3.2 0 0 1-3.2 3.2H41.6a3.2 3.2 0 0 1-3.2-3.2V64a3.2 3.2 0 0 1 3.2-3.2h172.8a3.2 3.2 0 0 1 3.2 3.2Zm-76.8 89.6h48v-6.4h-48v6.4Zm41.6-19.2h16V128h-16v6.4Zm-41.6 0h25.6V128h-25.6v6.4Zm-48 12.8c0-1.763-1.434-3.2-3.2-3.2a3.203 3.203 0 0 0-3.2 3.2c0 1.763 1.434 3.2 3.2 3.2 1.766 0 3.2-1.437 3.2-3.2Zm6.4 0c0 4.166-2.685 7.683-6.4 9.011v6.989h-6.4v-6.992c-3.715-1.325-6.4-4.842-6.4-9.008 0-5.293 4.307-9.6 9.6-9.6 5.293 0 9.6 4.307 9.6 9.6Zm-38.4 25.578 57.58.022.007-12.8H105.6v-6.4h12.787l.007-9.6H105.6v-6.4h12.797l.003-9.578L60.82 128l-.02 44.778Zm9.6-51.175 38.4.016V99.2c.003-7.37-8.97-13.834-19.2-13.84h-.013c-10.214 0-19.174 6.467-19.18 13.84l-.007 22.403Zm-16 54.371.02-51.174a3.199 3.199 0 0 1 3.2-3.2l6.38.003.006-22.403c.007-11.162 11.482-20.24 25.581-20.24h.013c14.118.006 25.603 9.088 25.6 20.24v22.422l6.4.004a3.2 3.2 0 0 1 3.2 3.2L124.78 176a3.199 3.199 0 0 1-3.2 3.2l-63.98-.026a3.2 3.2 0 0 1-3.2-3.2ZM192 115.2h6.4v-6.4H192v6.4Zm-51.2 0H176v-6.4h-35.2v6.4Z" fill="#FFF"/></svg>
